X:1
T:The Little Reaper's Song
T:The Little Reaper's Song
T:Album for the Young
T:Schumann, Op. 68 No. 18
C:Schumann, Op. 68 No. 18
%%score { ( 1 2 ) | 3 }
L:1/8
Q:1/4=112
M:6/8
K:C
V:1 treble nm="Piano" snm="Pno."
V:2 treble 
V:3 bass 
V:1
"^Nicht sehr schnell"!p! (!2!G!5!cB !2!A!5!dc |{/!4!c} !3!BAB c2 e) | (GcB Adc |{/c} BAB c2) z :: %4
 (!5!B3 !>!c3- | c2 A G2) z | (!5!B3 !>!c3- | c2 A G2) z :|!p! (GcB Adc |{/c} BAB c2 e) | %10
 (GcB Adc |{/c} BAB c2) ||!f! (!1!C | !>!!2!F!3!A!5!d !4!c!2!A!1!F | !3!EGD !1!CDE | !1!FAd cAF | %16
 !3!EGD C2) (C | FAd cA!1!F | EGD CDE | FAd cAF | EGD C3) ||!p! (!2!cfe !2!dgf |{/f} ede f2 a) | %23
 (cfe dgf |{/f} ede f2) z | (!5!e3 !>!f3- | f2 d c2) z | (e3 !>!f3- | f2 d c2) .G | %29
!p! .!3![Gd].[ce].[df] .!3!!5![ce].!1![Gd].!1!!3![Ec] | .!2!!4![Bd].[Ac].[Bd] .c z .G | %31
 .[Gd].[ce].[df] .[ce].[Gd].[Ec] | .[Bd].[Ac].[Bd] .c z .!2!c |!<(! .B.c.d .!1!c.d.^d!<)! | %34
 .!1!e.f.^f .g z!p! .[=FB] | .[Ec] z z .[Ec] z z | .[ec'] z z |] %37
V:2
 E3 !>!F3- | F3 E3 | E3 !>!F3- | F3 E2 x :: !1!D!3!G^F E!4!AG | ^FEF (G2 !5!B) | DG^F EAG | %7
 ^FEF G2 x :| E3 !>!F3- | F3 E3 | E3 !>!F3- | !1!F3 E2 || x | x6 | x6 | x6 | x6 | x6 | x6 | x6 | %20
 x6 || A3 !>!_B3- | B3 A3 | A3 !>!_B3- | B3 A2 x | !1!G!3!cB A!4!dc | BAB c2 e | GcB Adc | %28
 BAB c2 x | x6 | x6 | x6 | x6 | x6 | x6 | x6 | x3 |] %37
V:3
 [C,G,]3 [C,G,]3- | [C,G,]3 [C,G,]3 | [C,G,]3 [C,G,]3- | [C,G,]3 [C,G,]2 z :: (!2!G,3 C,3) | %5
 (!5!D,!1!DC B,A,G,) | (!2!G,3 C,3) | (D,DC !1!B,A,G,) :| [C,G,]3 [C,G,]3- | [C,G,]3 [C,G,]3 | %10
 [C,G,]3 [C,G,]3- | [C,G,]3 [C,G,]2 || (!5!C, | !>!!3!F,!2!A,!1!D !2!C!3!A,!1!F, | %14
 !3!E,!1!G,!4!D, !5!C,D,E, | !1!F,A,D CA,!1!F, | !3!E,G,D, C,2) (C, | F,A,D CA,!1!F, | %18
 E,G,D, C,D,E, | !1!F,A,D CA,!1!F, | !3!E,G,D, C,D,!3!E,) || !2!!1![F,C]3 !5!!1![F,C]3- | %22
 [F,C]3 [F,C]3 | [F,C]3 [F,C]3- | [F,C]3 [F,C]2 z | (!2!C3 !5!F,3) | (!5!G,GF !1!EDC) | (C3 F,3) | %28
 (G,GF EDC) | .!2![G,D] z z .!3!!1![CE] z z | z z .[G,D] .[CE] z z | .[G,D] z z .[CE] z z | %32
 z z .[G,D] .[CE] z z | z6 | z2 z z z .G, | .C z z .C z z | .C, z z |] %37

